resources/haticons/SVG/blogger.svg

<!-- Generated by IcoMoon.io -->
<svg version="1.1" xmlns="http://www.w3.org/2000/svg" width="24" height="24" viewBox="0 0 24 24">
<title>blogger</title>
<path d="M22.448 9h-1.345c-0.824 0-1.547-0.697-1.603-1.5v0c0-4.281-3.451-7.5-7.762-7.5h-3.933c-4.308 0-7.801 3.469-7.804 7.75v8.503c0 4.281 3.496 7.747 7.804 7.747h8.4c4.311 0 7.795-3.466 7.795-7.747v-5.493c0-0.856-0.69-1.76-1.552-1.76zM7.5 6h4.5c0.825 0 1.5 0.675 1.5 1.5s-0.675 1.5-1.5 1.5h-4.5c-0.825 0-1.5-0.675-1.5-1.5s0.675-1.5 1.5-1.5zM16.5 18h-9c-0.825 0-1.5-0.675-1.5-1.5s0.675-1.5 1.5-1.5h9c0.825 0 1.5 0.675 1.5 1.5s-0.675 1.5-1.5 1.5z"></path>
</svg>

<svg xmlns="http://www.w3.org/2000/svg" width="24" height="24"><path d="M22.448 9h-1.345c-.824 0-1.547-.697-1.603-1.5 0-4.281-3.451-7.5-7.762-7.5H7.805C3.497 0 .004 3.469.001 7.75v8.503C.001 20.534 3.497 24 7.805 24h8.4C20.516 24 24 20.534 24 16.253V10.76C24 9.904 23.31 9 22.448 9zM7.5 6H12c.825 0 1.5.675 1.5 1.5S12.825 9 12 9H7.5C6.675 9 6 8.325 6 7.5S6.675 6 7.5 6zm9 12h-9c-.825 0-1.5-.675-1.5-1.5S6.675 15 7.5 15h9c.825 0 1.5.675 1.5 1.5s-.675 1.5-1.5 1.5z"/></svg>
